X:5
T:Calliope House
S:Bernie Waugh
R:Jig
M:6/8
L:1/8
K:E
|:\
"E"Bee gBB|fBB gBB|"F#m"cff ~f2e|"B"fge ~c3|
"E"BcB ~B2G|"C#m"B2c e2f|1"F#m"g2b gfe|"B"[B3f3]- [Bf]GA:|2\
"A"gbg "B7"fec|"E"e3-e2g||
|:\
"G#m"b3 gbb|"E7"fbb efg|"A"(ga2) gag|"F#m"fge c3|
"E"BcB ~B2G|"C#m"B2A e2f|1"F#m"g2b gfe|"B"[B3f3]- [Bf]ga:|2\
"A"gbg "B7"fec|"E"[B3e3]- [B2e2]z:|

